packages/icons/src/svg/28/copy_outline_28.svg

<?xml version="1.0" encoding="UTF-8"?>
<svg width="28px" height="28px" viewBox="0 0 28 28" version="1.1" xmlns="http://www.w3.org/2000/svg" xmlns:xlink="http://www.w3.org/1999/xlink">
    <!-- Generator: Sketch 63.1 (92452) - https://sketch.com -->
    <title>copy_outline_28</title>
    <desc>Created with Sketch.</desc>
    <g id="Page-1" stroke="none" stroke-width="1" fill="none" fill-rule="evenodd">
        <g id="copy_outline_28">
            <polygon points="0 0 28 0 28 28 0 28"></polygon>
            <path d="M17,2 C18.3062521,2 19.4175144,2.8348501 19.8293257,4.00008893 L10.1277704,4 C8.34473292,4 7.69816044,4.18565122 7.04630859,4.53426541 C6.39445674,4.88287959 5.88287959,5.39445674 5.53426541,6.04630859 C5.18565122,6.69816044 5,7.34473292 5,9.1277704 L5,9.1277704 L5.00008893,19.8293257 C3.8348501,19.4175144 3,18.3062521 3,17 L3,17 L3,8 C3,4.6862915 5.6862915,2 9,2 L9,2 Z M21,6 C22.6568542,6 24,7.34314575 24,9 L24,9 L24,22 C24,23.6568542 22.6568542,25 21,25 L21,25 L10,25 C8.34314575,25 7,23.6568542 7,22 L7,22 L7,9 C7,7.34314575 8.34314575,6 10,6 L10,6 Z M21,8 L10,8 C9.44771525,8 9,8.44771525 9,9 L9,22 C9,22.5522847 9.44771525,23 10,23 L21,23 C21.5522847,23 22,22.5522847 22,22 L22,9 C22,8.44771525 21.5522847,8 21,8 Z" id="↳-Icon-Color" fill="currentColor" fill-rule="nonzero"></path>
        </g>
    </g>
</svg>

<svg xmlns="http://www.w3.org/2000/svg" width="28" height="28" fill="currentColor" viewBox="0 0 28 28"><path d="M17 2c1.306 0 2.418.835 2.83 2h-9.702c-1.783 0-2.43.186-3.082.534a3.635 3.635 0 0 0-1.512 1.512C5.186 6.698 5 7.345 5 9.128v10.701A3.001 3.001 0 0 1 3 17V8a6 6 0 0 1 6-6h8Zm4 4a3 3 0 0 1 3 3v13a3 3 0 0 1-3 3H10a3 3 0 0 1-3-3V9a3 3 0 0 1 3-3h11Zm0 2H10a1 1 0 0 0-1 1v13a1 1 0 0 0 1 1h11a1 1 0 0 0 1-1V9a1 1 0 0 0-1-1Z"/></svg>
